X:1
T:Title
%%score { ( 1 3 ) | ( 2 4 ) }
L:1/8
M:4/4
K:F
V:1 treble nm="Grand Piano"
V:3 treble 
V:2 bass 
V:4 bass 
V:1
 z4 z2[Q:1/4=100] [Ac][GB] | AAAG F2 Ac | [Fd]4 z4 | FF[DF]D C2 FG | A4 z4 | %5
 [CAc][CAc][CAc][CFA] [CAc]2 FG | AAAF A2 cc | ddfd c2 AF |[M:3/4] [EG]4 F2 |[M:4/4] c2 c>c cABc | %10
 d4 c2 z2 | [GB]2 [GB]>[FA] [EG][FA][GB][Bd] | [Ac]4 A2 z2 | z4 c4 | [Fd]2 [DB]2 [Fd]4 | %15
 [Ec]2 [Ec][Ec] [Ed][Ec][CFA][A,F] |[M:3/4] [B,EG]4 [A,F]2 |] %17
V:2
 z4 z2 [F,C][F,C] | [F,CF][F,CF][F,CF][F,B,F] [F,A,]2 [F,F][F,A,F] | B,4 [F,A,F]2 [C,C][C,B,] | %3
 [D,A,][D,A,D][B,,B,][B,,F,B,] [F,A,]2 [F,A,C][F,B,C] | [F,C]2 A,,2 C,2 F,F, | %5
 F,F,F,F, F,2 [F,A,][F,B,F] | [F,CF][F,CF][F,CF][F,A,][K:treble] [F,CF]2 [F,A,F][F,A,F] | %7
 [B,F][B,F][B,DF][B,F][K:bass] [F,A,F]2 [F,CF][F,A,] |[M:3/4] [C,B,]4 [F,A,]2 | %9
[M:4/4][K:treble] [F,A,F]2 [F,A,F]>[F,A,F] [F,A,F][F,CF][G,CE][A,CF] | [B,F]4 [F,A,F]2 z2 | %11
 [C,C]2 [C,C]>[C,C] [C,C][C,C][E,C][C,C] | [F,C]4 [F,CF]2 z2 | [F,A,F]2 [F,F]2 F2- [F,F]2 | %14
 [B,,B,]2 [B,,B,]2 [B,,B,]4 | [C,G,]2 [C,G,][C,G,] [C,G,][C,G,]C,C, |[M:3/4] C,4 F,2 |] %17
V:3
 x8 | x8 | z2 D,2 c2 [EA][EG] | x8 | z2 F2 [CEG]2 [CFA][CGB] | x8 | x8 | x8 |[M:3/4] x6 | %9
[M:4/4] x8 | x8 | x8 | x8 | c2 A2 z2 A,2 | x8 | x8 |[M:3/4] x6 |] %17
V:4
 x8 | x8 | B,,2 z2 z4 | x8 | x8 | x8 | x4[K:treble] x4 | x4[K:bass] x4 |[M:3/4] x6 | %9
[M:4/4][K:treble] x8 | x8 | x8 | x8 | z4 [F,A,]2 z2 | x8 | x8 |[M:3/4] x6 |] %17

